src/actions/24/draw-polyline.svg

<svg viewBox="0 0 24 24" xmlns="http://www.w3.org/2000/svg">
 <defs>
  <style type="text/css">.ColorScheme-Text {
        color:#2e3440;
      }</style>
 </defs>
 <path class="ColorScheme-Text" d="m4 4v1 10 1h4v4h1 11 0.99219l0.007812-0.007812-11-11v-3.9922-1h-5-1zm1 1h4v4 0.40625l9.5938 9.5938h-9.5938v-4h-1-3v-10z" fill="currentColor"/>
</svg>

<svg xmlns="http://www.w3.org/2000/svg" viewBox="0 0 24 24">
  <defs id="defs3051">
    <style type="text/css" id="current-color-scheme">
      .ColorScheme-Text {
        color:#2e3440;
      }
      </style>
  </defs>
 <path style="fill:currentColor;fill-opacity:1;stroke:none" 
     d="M 4 4 L 4 5 L 4 15 L 4 16 L 8 16 L 8 20 L 9 20 L 20 20 L 20.992188 20 L 21 19.992188 L 12.707031 11.699219 L 10 8.9921875 L 10 5 L 10 4 L 5 4 L 4 4 z M 5 5 L 9 5 L 9 9 L 9 9.40625 L 12 12.40625 L 18.59375 19 L 9 19 L 9 15 L 8 15 L 5 15 L 5 5 z "
     class="ColorScheme-Text"
     />
</svg>
